X: 1
T:Rakes of Mallow
M:2/4
L:1/8
R:polka
K:G
(3D/E/F/ \
|: "G"GB GB | GB c/B/A/G/ | "D7"FA FA | FA d/c/B/A/ |
   "G"GB GB | "C"G/A/B/c/ "G"dB | "D7"c/B/A/G/ F/G/A/c/ |\
  [1 "G"BG G (3D/E/F/ :|[2 "G"BG G2 ||
|: "G"gf/e/ "C"dc | "G"Bc d2 | gf/e/ "C"dc | "G"Bd "D7"A2 |
   "G"gf/e/ "C"dc | "G"Bc dB | "D7"c/B/A/G/ F/G/A/c/ |\
  [1 "G"BG G2 :|[2 "G"BG G (3D/E/F/ |]
N:HOI - abc by Peter Ostapenko 5/12/2007
N:G Major
